X:1
T:Closer Walk with Thee
T:Closer Walk with Thee
T:William James Kirkpatrick
T:Frances Jane (Fanny) Crosby, 1885
T:Public Domain Courtesy of the Cyber Hymnal™
T:Public Domain Courtesy of the Cyber Hymnal™
C:William James Kirkpatrick
Z:Public Domain
Z:Courtesy of the Cyber Hymnal™
%%score ( 1 2 ) ( 3 4 )
L:1/8
Q:1/4=93
M:4/4
K:Ab
V:1 treble 
V:2 treble 
V:3 bass 
V:4 bass 
V:1
 [CA][DB] | [Ec][Ec][DB][EA] [DB][FA][EG][DF] | [CE][CA] [CA]>[DB] [Ec]2 [DB][CA] | %3
w: 1.~I am|hap- py, O my Sav- ior, For I|know that I am Thine, Thro’ the|
w: 2.~’Tis Thy|hand, the clouds re- mov- ing, Scat- ters|sun- shine o’er my way; I am|
w: 3.~To the|heights of sac- red rap- ture, That I|ne- ver yet have known, Let me|
 [EB][EB][EB][Ec] [Ed][Ed][Ec][EB] | [Ec][Ee] [Ee]>[Ec] !fermata![EB]2 [Ec][Ed] | %5
w: pure and per- fect cleans- ing Of Thy|pre- cious blood di- vine: But my|
w: feast- ing at the ban- quet Of Thy|mer- cy ev- ery day; But my|
w: soar a- way in tri- umph, Till my|faith shall touch Thy throne; In the|
 [Ee][Ee][Ed][Ec] [EGd][EGd][Ec][EB] | [Ec][Ec][EB][=DA] [EB]2 [CA][_DB] | %7
w: soul would rise still high- er, There are|great- er joys for me; I am|
w: soul would drink more deep- ly At the|Fount of Life so free: O my|
w: wide un- fath- omed o- cean Of Thy|might- y love so free, Let the|
 [Ec][Ec][DB][EA] [DB][FA][EG][DF] | [CE]<[CA] [Ec]>[DB] !fermata![CA]2 ||"^Refrain" [Ec]>[Ed] | %10
w: long- ing, I am pray- ing For a|clos- er walk with Thee.|For a|
w: Sav- ior, I am plead- ing For a|clos- er walk with Thee.|For a|
w: ti- dal wave roll o’er me, Till my|soul is lost in Thee.|Till my|
 [Ae]<[Ae] [Ae]>[Ae] [Ae]2 [Ec]>[EB] | [EA]<[EA] [FA]>[FA] [EA]2 [EA][EA] | %12
w: clos- er walk with Thee, For a|clos- er walk with Thee, * *|
w: clos- er walk with Thee, For a|clos- er walk with Thee, Sav- ior|
w: soul is lost in Thee, Till my|soul is lost in Thee; * *|
 [Ed]2 [Ed]2 [Ed]2 [Ec]2 | [EB]6 [Ec][Ed] | [Ae]4 [Ae]2 [Ec][EB] | (A3 B) [FA]2 [EG][DF] | %16
w: ||||
w: come, a- bide with|me, I am|long- ing, I am|pray- * ing, For a|
w: ||||
 [CE] [EA]3 [Ec]2 [DB]2 | [CA]6 |] %18
w: ||
w: clos- er walk with|Thee.|
w: ||
V:2
 x2 | x8 | x8 | x8 | x8 | x8 | x8 | x8 | x6 || x2 | x8 | x8 | x8 | x8 | x8 | F4 x4 | x8 | x6 |] %18
V:3
 [A,,E,][A,,E,] | [A,,A,][A,,A,][B,,G,][C,A,] [D,F,][D,A,][D,A,][D,A,] | %2
 [A,,A,][A,,E,] [A,,E,]>[A,,E,] [A,,A,]2 [A,,E,][A,,A,] | %3
 [E,G,][E,G,][E,G,][E,A,] [E,B,][E,B,][E,A,][E,G,] | A,[A,C] [A,C]>A, !fermata![E,G,]2 A,[G,B,] | %5
 [A,C][A,C][A,B,]A, [E,B,][E,B,][E,A,][E,G,] | A,A,[G,B,][F,B,] [E,G,]2 [A,,A,][A,,A,] | %7
 [A,,A,][A,,A,][B,,G,][C,A,] [D,F,][D,F,][D,G,][D,A,] | %8
 [E,A,]<[E,A,] [E,A,]>[E,G,] !fermata![A,,A,]2 || A,>[A,B,] | %10
 [A,C]<[A,C] [A,C]>[A,C] [A,C]2 [A,,A,]>[A,,D] | [A,,C]<[A,,C] [D,D]>[D,D] [A,,C]2 [A,C][A,C] | %12
 [G,B,]2 [G,B,]2 A,2 A,2 | [E,G,]6 A,[A,B,] | [A,C]<[A,C] [A,C]>[A,C] [A,C]<[A,C] [C,A,][C,A,] | %15
 [D,A,]<[D,A,] [D,D]>[D,D] [D,A,]<[D,A,] [D,A,][D,A,] | [E,A,] [E,C]3 [E,A,]2 [E,G,]2 | %17
 [A,,E,A,]6 |] %18
V:4
 x2 | x8 | x8 | x8 | A, x3/2 A,/ x3/2 A, x5/2 | x3 A, x4 | A,A, x6 | x8 | x6 || A,3/2 x/ | x8 | %11
 x8 | x4 A,2 A,2 | x6 A, x | x8 | x8 | x8 | x6 |] %18

